!!!SOCIAL_FUNCTION:	miscellaneous songs
!!!PDT:	1922
!!!OTL: No_107_Song_When_Welcoming_Visitors.krn
!!!REG: Southwest
!!!LANG: Non-Tone
!!!LING_GROUP: Uto-Aztecan
**kern	**kern
*staff2	*staff1
=1-	=1-
*clefF4	*clefF4
*k[b-]	*k[b-]
*M2/4	*M2/4
4GG/	8A\L
.	8A\J
4GG/	8A\L
.	8G\J
=2	=2
4GG/	4A\
4GG/	4G;\
=3	=3
4GG/	8F\L
.	8F\J
4GG/	4F\
=4	=4
2r	16G\LL
.	16F\J
.	8F\J
.	4F\
=5||	=5||
*M3/4	*M3/4
2.r	8C/L
.	8C/J
.	2C/
=6	=6
2.r	16G\LL
.	16F\J
.	8F\J
.	2F\
=7	=7
2.r	4.C/
.	8F\
.	4F\
=8	=8
2.r	8C/L
.	8C/J
.	2C/
=9	=9
2.r	8BB-/L
.	8C/J
.	8BB-/L
.	8C/J
.	8.C/L
.	16F/Jk
=10||	=10||
*M2/4	*M2/4
2r	4F\
.	8C/L
.	8C/J
=11	=11
2r	2C/
=12	=12
2r	2C/
==	==
*-	*-
